X: 33803
T: Ray's Classic
R: polka
M: 2/4
K: Amajor
|:A>B AE|FA E2|FB BA/B/|cB Bc/B/|
A>B AE|FA E2|FB BA/B/|1 cA Ac/B/:|2 cA Ac||
|:e>f eA|f2 f2|Bf Bf|g2 g2|
cg cg|a2 g>f|ec BA/B/|1 cA Ac:|2 cA Ac/B/||

